X: 19
T: Hexham Races
C: J-7
M: 6/8
Z: Transcribed to abc by Mary Lou Knack
R: jig
K: G
(3D/E/F/| "G"GBd gdB| ded d2B| GBd gdB| "D"ABA A2B/A/|
          "G"GBd gdB| def "C"gfe| "G"dcB "D"cBA| "G"GAG G2 :|
|:\
(3d/e/f/| "G"g2d edB| ded d2e/f/| g2d edB| "D"ABA A2b/a/|
          "G"gdd edB| def "C"gfe| "G"dcB "D"cBA| "G"GAG G2 :|
%%text 9/1/98.  Also known as "Kenmore Lads".
